assets/close.svg

<svg xmlns="http://www.w3.org/2000/svg"  viewBox="0 0 16 16" width="16px" height="16px"><path d="M 2.75 2.042969 L 2.042969 2.75 L 2.398438 3.101563 L 7.292969 8 L 2.042969 13.25 L 2.75 13.957031 L 8 8.707031 L 12.894531 13.605469 L 13.25 13.957031 L 13.957031 13.25 L 13.605469 12.894531 L 8.707031 8 L 13.957031 2.75 L 13.25 2.042969 L 8 7.292969 L 3.101563 2.398438 Z"/></svg>

<svg xmlns="http://www.w3.org/2000/svg" xmlns:xlink="http://www.w3.org/1999/xlink" viewBox="0,0,256,256" width="16px" height="16px" fill-rule="nonzero"><g fill="#fff1d2" fill-rule="nonzero" stroke="none" stroke-width="1" stroke-linecap="butt" stroke-linejoin="miter" stroke-miterlimit="10" stroke-dasharray="" stroke-dashoffset="0" font-family="none" font-weight="none" font-size="none" text-anchor="none" style="mix-blend-mode: normal"><g transform="scale(16,16)"><path d="M2.75,2.04297l-0.70703,0.70703l0.35547,0.35156l4.89453,4.89844l-5.25,5.25l0.70703,0.70703l5.25,-5.25l4.89453,4.89844l0.35547,0.35156l0.70703,-0.70703l-0.35156,-0.35547l-4.89844,-4.89453l5.25,-5.25l-0.70703,-0.70703l-5.25,5.25l-4.89844,-4.89453z"></path></g></g></svg>
